svgs/solid/prescription-bottle.svg

<svg xmlns="http://www.w3.org/2000/svg" viewBox="0 0 384 512"><!-- Font Awesome Pro 6.0.0-alpha2 by @fontawesome - https://fontawesome.com License - https://fontawesome.com/license (Commercial License) --><path d="M32 192H144C152.801 192 160 199.199 160 208C160 216.799 152.801 224 144 224H32V288H144C152.801 288 160 295.199 160 304C160 312.799 152.801 320 144 320H32V384H144C152.801 384 160 391.199 160 400C160 408.799 152.801 416 144 416H32V448C32 483.199 60.801 512 96 512H288C323.199 512 352 483.199 352 448V128H32V192ZM360 0H24C10.75 0 0 10.75 0 24V72C0 85.25 10.75 96 24 96H360C373.25 96 384 85.25 384 72V24C384 10.75 373.25 0 360 0Z"/></svg>

<svg xmlns="http://www.w3.org/2000/svg" viewBox="0 0 384 512"><!--! Font Awesome Pro 6.0.0-alpha3 by @fontawesome - https://fontawesome.com License - https://fontawesome.com/license (Commercial License) --><path d="M32 192h112C152.8 192 160 199.2 160 208C160 216.8 152.8 224 144 224H32v64h112C152.8 288 160 295.2 160 304C160 312.8 152.8 320 144 320H32v64h112C152.8 384 160 391.2 160 400C160 408.8 152.8 416 144 416H32v32c0 35.2 28.8 64 64 64h192c35.2 0 64-28.8 64-64V128H32V192zM360 0H24C10.75 0 0 10.75 0 24v48C0 85.25 10.75 96 24 96h336C373.3 96 384 85.25 384 72v-48C384 10.75 373.3 0 360 0z"/></svg>
